45.svg

<svg viewBox="0 0 220 152" xmlns="http://www.w3.org/2000/svg"><path d="M66.9 91.006C26.252 91.006 12 85.4 12 55V0h34v48c0 5.99 6.936 10 14 10 6.989 0 14-4.028 14-10V0h34v152H67s-.1-54.994-.1-60.994zM220 100c0 35.75-21.341 52.007-50.007 52.007C134.331 152.007 121 132.939 121 103h34c0 6.875 3.25 11 12 11s12-4.125 12-19c0-18.271-3-22-12-22s-12 3.621-12 9h-34V0h87v36h-53v16c1.107-3.761 8.228-6.6 16.812-6.6C191.167 45.4 220 53.31 220 100z" fill="#0f0f14" fill-rule="evenodd"/></svg>

<?xml version="1.0" encoding="UTF-8"?>
<svg viewBox="0 0 220 152" xmlns="http://www.w3.org/2000/svg">
<defs><style>#fortyfive { fill: #0f0f14; fill-rule: evenodd; }</style></defs>
<path id="fortyfive" d="M66.9,91.006C26.252,91.006,12,85.4,12,55V0H46V48c0,5.99,6.936,10,14,10,6.989,0,14-4.028,14-10V0h34V152H67S66.9,97.006,66.9,91.006ZM220,100c0,35.75-21.341,52.007-50.007,52.007C134.331,152.007,121,132.939,121,103h34c0,6.875,3.25,11,12,11s12-4.125,12-19c0-18.271-3-22-12-22s-12,3.621-12,9H121V0h87V36H155V52c1.107-3.761,8.228-6.6,16.812-6.6C191.167,45.4,220,53.31,220,100Z"/>
</svg>
